link-lock.svg

<svg fill="currentColor" viewBox="0 0 24 24"><path d="M23 16v-.5a2.5 2.5 0 0 0-5 0v.5a1 1 0 0 0-1 1v4a1 1 0 0 0 1 1h5a1 1 0 0 0 1-1v-4a1 1 0 0 0-1-1m-1 0h-3v-.5a1.5 1.5 0 0 1 3 0M7 8.9h4V7H7a5 5 0 0 0 0 10h4v-1.9H7a3.1 3.1 0 0 1 0-6.2M8 11v2h8v-2m-3 4.1V17h2v-1.9M17 7h-4v1.9h4a3.09 3.09 0 0 1 2.94 2.1 5 5 0 0 1 .56 0h1.4A5 5 0 0 0 17 7"/></svg>

<svg  viewBox="0 0 24 24" fill="currentColor"><path  d="M23 16V15.5A2.5 2.5 0 0 0 18 15.5V16A1 1 0 0 0 17 17V21A1 1 0 0 0 18 22H23A1 1 0 0 0 24 21V17A1 1 0 0 0 23 16M22 16H19V15.5A1.5 1.5 0 0 1 22 15.5M7 8.9H11V7H7A5 5 0 0 0 7 17H11V15.1H7A3.1 3.1 0 0 1 7 8.9M8 11V13H16V11M13 15.1V17H15V15.1M17 7H13V8.9H17A3.09 3.09 0 0 1 19.94 11A5.12 5.12 0 0 1 20.5 11H21.9A5 5 0 0 0 17 7Z"/></svg>
